icons/document-chevron-left.svg

<svg xmlns="http://www.w3.org/2000/svg" width="24" height="24" viewBox="0 0 24 24">
  <path d="M12,1 L12,8 C12,8.55228475 12.4477153,9 13,9 L20,9 L20,21 C20,22.1045695 19.1045695,23 18,23 L6,23 C4.8954305,23 4,22.1045695 4,21 L4,3 C4,1.8954305 4.8954305,1 6,1 L12,1 Z M12.3871006,12.2097046 L12.2928932,12.2928932 L9.29289322,15.2928932 C8.93240926,15.6533772 8.90467972,16.2206082 9.20970461,16.6128994 L9.29289322,16.7071068 L12.2928932,19.7071068 C12.6834175,20.0976311 13.3165825,20.0976311 13.7071068,19.7071068 C14.0675907,19.3466228 14.0953203,18.7793918 13.7902954,18.3871006 L13.7071068,18.2928932 L11.415,16 L13.7071068,13.7071068 C14.0675907,13.3466228 14.0953203,12.7793918 13.7902954,12.3871006 L13.7071068,12.2928932 C13.3466228,11.9324093 12.7793918,11.9046797 12.3871006,12.2097046 Z M14,1 L20,7 L15,7 C14.4871642,7 14.0644928,6.61395981 14.0067277,6.11662113 L14,6 L14,1 Z"/>
</svg>

<svg xmlns="http://www.w3.org/2000/svg" viewBox="0 0 24 24">
  <path d="M12 1v7a1 1 0 0 0 1 1h7v12a2 2 0 0 1-2 2H6a2 2 0 0 1-2-2V3c0-1.1.9-2 2-2h6zm.39 11.21-.1.08-3 3a1 1 0 0 0-.08 1.32l.08.1 3 3a1 1 0 0 0 1.5-1.32l-.08-.1L11.4 16l2.3-2.3a1 1 0 0 0 .08-1.31l-.08-.1a1 1 0 0 0-1.32-.08zM14 1l6 6h-5a1 1 0 0 1-1-.88V1z"/>
</svg>
